X: 12129
T: Every Good Boy Does Fine
R: jig
M: 6/8
K: Edorian
EGB d2f|edB AGA|B2EE2G|FAF D2B,|
EGB d2f|edB AGA|B2EE2G|FED G2F:|
EBA B2E|BABB2B|def edB|ABd BAF|
EBA B2E|BABB2B|def gfe|dGB AFD:|

